alura/assets/api/cursos/power-bi-mergulhando-linguagem-m.svg

<svg width="48" height="49" viewBox="0 0 48 49" fill="none" xmlns="http://www.w3.org/2000/svg">
<path d="M46.1799 14.5701L1.92994 30.6801L1.68994 36.5701L1.76994 46.7001L31.3199 36.3401C31.3199 36.3301 31.3199 36.3101 31.3199 36.3001C31.3199 36.2901 31.3299 36.2801 31.3299 36.2601C31.1499 36.1601 31.0299 35.9501 31.0099 35.7401C30.9599 35.1501 31.1099 34.5301 31.2399 33.9501C31.3399 33.4801 31.4499 33.0101 31.5499 32.5501C31.3599 32.4401 31.2199 32.2301 31.2199 32.0201C31.2199 31.6701 31.4999 31.4601 31.8199 31.4201C33.8399 31.2101 35.8799 31.1301 37.9099 31.1301C38.2199 31.1301 38.3999 31.3301 38.4599 31.5601C38.5199 31.5601 38.5799 31.5601 38.6399 31.5601C41.1099 31.5301 43.5599 31.1501 46.0299 31.1301L46.8399 30.8401L46.1799 14.5701Z" fill="#AFE55D"/>
<path d="M46.8398 14.57V4.53995L39.7498 1.44995L16.3798 9.94995C16.2198 10.26 16.0998 10.61 15.9998 10.96C15.9298 11.63 15.8698 12.29 15.8098 12.96C16.0498 13.04 16.2298 13.27 16.2298 13.52C16.2298 14.03 16.2098 14.54 16.1798 15.05C16.1698 15.28 16.1598 15.51 16.1298 15.73C16.0998 16.03 16.0398 16.36 15.7298 16.49C15.6698 16.64 15.5598 16.77 15.3598 16.82C13.6398 17.26 11.8398 17.02 10.0898 16.99C7.89982 16.95 5.70982 16.99 3.51982 16.99C3.25982 16.99 3.09982 16.85 3.01982 16.68C2.51982 16.88 1.99982 17.06 1.46982 17.18L1.31982 20.36L1.55982 31.4399L46.3098 15.15L46.9898 14.9V14.57H46.8398Z" fill="#C3FF68"/>
<path d="M29.4899 27.68V44.01C29.4899 44.65 29.0399 45.18 28.4899 45.18H4.3999C3.8499 45.18 3.3999 44.66 3.3999 44.01V27.68C3.3999 27.04 3.8499 26.51 4.3999 26.51H28.4899C29.0399 26.51 29.4899 27.03 29.4899 27.68Z" stroke="#444444" stroke-width="0.5" stroke-miterlimit="10"/>
<path d="M21.0303 42.3899H29.4703C32.5803 42.3899 35.1003 39.8699 35.1003 36.7599L35.1503 28.8899" stroke="#444444" stroke-miterlimit="10" stroke-linecap="round" stroke-linejoin="round"/>
<path d="M26.6503 48.01L21.0303 42.39L26.6503 36.76" stroke="#444444" stroke-miterlimit="10" stroke-linecap="round" stroke-linejoin="round"/>
<path d="M45.24 0.5H17.83C16.75 0.5 15.87 1.38 15.87 2.46V16.16C16.31 16.15 16.74 16.15 17.18 16.15V5.72H45.9V29.87C45.9 30.23 45.61 30.52 45.25 30.52H31.95V18.2C31.95 17.12 31.08 16.25 30 16.25H2.74004C1.66004 16.25 0.790039 17.12 0.790039 18.2V45.46C0.790039 46.54 1.66004 47.41 2.74004 47.41H30C31.08 47.41 31.95 46.54 31.95 45.46V31.83H45.25C46.33 31.83 47.21 30.95 47.21 29.87V2.46C47.2 1.37 46.33 0.5 45.24 0.5ZM30.65 45.46C30.65 45.82 30.36 46.11 30 46.11H2.74004C2.38004 46.11 2.09004 45.82 2.09004 45.46V21.44H30.64V45.46H30.65Z" fill="#444444" stroke="#444444" stroke-width="0.25" stroke-miterlimit="10"/>
<path d="M21.0899 11.3099C22.1724 11.3099 23.0499 10.4324 23.0499 9.34989C23.0499 8.26741 22.1724 7.38989 21.0899 7.38989C20.0074 7.38989 19.1299 8.26741 19.1299 9.34989C19.1299 10.4324 20.0074 11.3099 21.0899 11.3099Z" fill="#444444"/>
<path d="M43.7201 20.8601C43.3601 20.8601 43.0701 21.1401 43.0701 21.4801V22.3001C43.0701 22.0201 42.7801 21.8001 42.4201 21.8001C42.0601 21.8001 41.7701 22.0201 41.7701 22.3001V22.9801C41.7201 22.7901 41.4601 22.6501 41.1401 22.6501C40.7801 22.6501 40.4901 22.8301 40.4901 23.0401V20.9501C40.4901 20.5701 40.2001 20.2601 39.8401 20.2601C39.4801 20.2601 39.1901 20.5701 39.1901 20.9501V19.2901C39.1901 18.7801 38.9001 18.3601 38.5401 18.3601C38.1801 18.3601 37.8901 18.7801 37.8901 19.2901V19.6001C37.8401 19.1901 37.5801 18.8601 37.2601 18.8601C36.9001 18.8601 36.6101 19.2501 36.6101 19.7301V19.7901C36.4901 19.6201 36.3201 19.5101 36.1201 19.5101C35.7601 19.5101 35.4701 19.8601 35.4701 20.2901V22.0401C35.4701 21.7501 35.1801 21.5101 34.8201 21.5101C34.4901 21.5101 34.2401 21.7101 34.1901 21.9601V21.2101C34.1901 20.8501 33.9001 20.5601 33.5401 20.5601C33.1801 20.5601 32.8901 20.8501 32.8901 21.2101V25.1301C32.8901 25.3001 32.9601 25.4401 33.0601 25.5601C33.1801 25.7001 33.3501 25.7901 33.5401 25.7901C33.7401 25.7901 33.9101 25.7001 34.0201 25.5601C34.1001 25.4701 34.1501 25.3601 34.1701 25.2301V25.2501C34.1701 25.3701 34.2301 25.4701 34.3001 25.5601C34.4201 25.6901 34.6001 25.7901 34.8201 25.7901C35.0401 25.7901 35.2201 25.7001 35.3401 25.5601C35.4201 25.4701 35.4701 25.3701 35.4701 25.2501V25.0001C35.4701 25.2201 35.5501 25.4201 35.6701 25.5601C35.7901 25.7001 35.9501 25.7901 36.1301 25.7901C36.3101 25.7901 36.4701 25.7001 36.5901 25.5601C36.6401 25.5001 36.6801 25.4201 36.7201 25.3401C36.7601 25.4201 36.8001 25.5001 36.8501 25.5601C36.9701 25.7001 37.1101 25.7901 37.2801 25.7901C37.4501 25.7901 37.5901 25.7001 37.7101 25.5601C37.8401 25.4101 37.9201 25.2001 37.9301 24.9601C37.9501 25.2001 38.0301 25.4101 38.1601 25.5601C38.2701 25.6901 38.4101 25.7901 38.5701 25.7901C38.7301 25.7901 38.8701 25.7001 38.9801 25.5601C39.1201 25.3901 39.2201 25.1401 39.2201 24.8601V25.1001C39.2201 25.2801 39.2901 25.4401 39.4001 25.5701C39.5201 25.7101 39.6901 25.8001 39.8801 25.8001C40.0701 25.8001 40.2401 25.7101 40.3601 25.5701C40.4701 25.4501 40.5401 25.2901 40.5401 25.1001V25.4001C40.5401 25.4601 40.5701 25.5201 40.6101 25.5701C40.7101 25.7001 40.9401 25.8001 41.2001 25.8001C41.4601 25.8001 41.6801 25.7101 41.7901 25.5701C41.8301 25.5201 41.8601 25.4601 41.8601 25.4001V25.3701C41.8801 25.4401 41.9101 25.5101 41.9601 25.5701C42.0801 25.7001 42.2701 25.8001 42.4901 25.8001C42.7101 25.8001 42.9001 25.7101 43.0201 25.5701C43.0901 25.4901 43.1401 25.4001 43.1401 25.3001V25.1801C43.1401 25.3301 43.2001 25.4601 43.3001 25.5701C43.4201 25.7001 43.5901 25.8001 43.7901 25.8001C43.9901 25.8001 44.1601 25.7101 44.2801 25.5701C44.3701 25.4601 44.4401 25.3301 44.4401 25.1801V21.4901C44.3701 21.1301 44.0801 20.8601 43.7201 20.8601Z" fill="#444444"/>
<path d="M25.0103 5.76001V16.34" stroke="#444444" stroke-width="0.25" stroke-miterlimit="10"/>
<path d="M29.2397 14.93L31.7497 11.36C32.2197 10.89 32.9697 10.84 33.4897 11.26L34.9297 12.41C35.4497 12.83 36.1997 12.79 36.6697 12.31L38.6297 10.35C39.1397 9.84003 39.9697 9.84003 40.4797 10.35C40.5397 10.41 40.5997 10.48 40.6397 10.55L43.6797 15.1" fill="#444444"/>
<path d="M44.0798 15.0999H29.0698V8.92993" stroke="#444444" stroke-width="0.5" stroke-miterlimit="10" stroke-linecap="round"/>
<path d="M4.6499 24.5901H12.3499" stroke="#444444" stroke-miterlimit="10" stroke-linecap="round"/>
<path d="M5.39014 28.8999H21.7401" stroke="#444444" stroke-miterlimit="10" stroke-linecap="round"/>
<path d="M8.18018 32.04H15.8702" stroke="#444444" stroke-miterlimit="10" stroke-linecap="round"/>
<path d="M17.5498 32.04H23.0298" stroke="#444444" stroke-miterlimit="10" stroke-linecap="round"/>
<path d="M24.71 32.04H27.86" stroke="#444444" stroke-miterlimit="10" stroke-linecap="round"/>
</svg>

<svg xmlns="http://www.w3.org/2000/svg" fill="none" viewBox="0 0 48 49"><path fill="#AFE55D" d="M46.18 14.57L1.93 30.68l-.24 5.89.08 10.13 29.55-10.36v-.04c0-.01.01-.02.01-.04-.18-.1-.3-.31-.32-.52-.05-.59.1-1.21.23-1.79.1-.47.21-.94.31-1.4-.19-.11-.33-.32-.33-.53 0-.35.28-.56.6-.6 2.02-.21 4.06-.29 6.09-.29.31 0 .49.2.55.43h.18c2.47-.03 4.92-.41 7.39-.43l.81-.29-.66-16.27z"/><path fill="#C3FF68" d="M46.84 14.57V4.54l-7.09-3.09-23.37 8.5c-.16.31-.28.66-.38 1.01-.07.67-.13 1.33-.19 2 .24.08.42.31.42.56 0 .51-.02 1.02-.05 1.53-.01.23-.02.46-.05.68-.03.3-.09.63-.4.76-.06.15-.17.28-.37.33-1.72.44-3.52.2-5.27.17-2.19-.04-4.38 0-6.57 0-.26 0-.42-.14-.5-.31-.5.2-1.02.38-1.55.5l-.15 3.18.24 11.08 44.75-16.29.68-.25v-.33h-.15z"/><path stroke="#444" stroke-miterlimit="10" stroke-width=".5" d="M29.49 27.68v16.33c0 .64-.45 1.17-1 1.17H4.4c-.55 0-1-.52-1-1.17V27.68c0-.64.45-1.17 1-1.17h24.09c.55 0 1 .52 1 1.17z"/><path stroke="#444" stroke-linecap="round" stroke-linejoin="round" stroke-miterlimit="10" d="M21.03 42.39h8.44a5.63 5.63 0 005.63-5.63l.05-7.87"/><path stroke="#444" stroke-linecap="round" stroke-linejoin="round" stroke-miterlimit="10" d="M26.65 48.01l-5.62-5.62 5.62-5.63"/><path fill="#444" stroke="#444" stroke-miterlimit="10" stroke-width=".25" d="M45.24.5H17.83c-1.08 0-1.96.88-1.96 1.96v13.7c.44-.01.87-.01 1.31-.01V5.72H45.9v24.15c0 .36-.29.65-.65.65h-13.3V18.2c0-1.08-.87-1.95-1.95-1.95H2.74c-1.08 0-1.95.87-1.95 1.95v27.26c0 1.08.87 1.95 1.95 1.95H30c1.08 0 1.95-.87 1.95-1.95V31.83h13.3c1.08 0 1.96-.88 1.96-1.96V2.46A1.965 1.965 0 0045.24.5zM30.65 45.46c0 .36-.29.65-.65.65H2.74c-.36 0-.65-.29-.65-.65V21.44h28.55v24.02h.01z"/><path fill="#444" d="M21.09 11.31a1.96 1.96 0 100-3.92 1.96 1.96 0 000 3.92zm22.63 9.55c-.36 0-.65.28-.65.62v.82c0-.28-.29-.5-.65-.5-.36 0-.65.22-.65.5v.68c-.05-.19-.31-.33-.63-.33-.36 0-.65.18-.65.39v-2.09c0-.38-.29-.69-.65-.69-.36 0-.65.31-.65.69v-1.66c0-.51-.29-.93-.65-.93-.36 0-.65.42-.65.93v.31c-.05-.41-.31-.74-.63-.74-.36 0-.65.39-.65.87v.06c-.12-.17-.29-.28-.49-.28-.36 0-.65.35-.65.78v1.75c0-.29-.29-.53-.65-.53-.33 0-.58.2-.63.45v-.75c0-.36-.29-.65-.65-.65-.36 0-.65.29-.65.65v3.92c0 .17.07.31.17.43.12.14.29.23.48.23.2 0 .37-.09.48-.23.08-.09.13-.2.15-.33v.02c0 .12.06.22.13.31.12.13.3.23.52.23.22 0 .4-.09.52-.23.08-.09.13-.19.13-.31V25c0 .22.08.42.2.56.12.14.28.23.46.23s.34-.09.46-.23c.05-.06.09-.14.13-.22.04.08.08.16.13.22.12.14.26.23.43.23.17 0 .31-.09.43-.23.13-.15.21-.36.22-.6.02.24.1.45.23.6.11.13.25.23.41.23.16 0 .3-.09.41-.23.14-.17.24-.42.24-.7v.24c0 .18.07.34.18.47.12.14.29.23.48.23s.36-.09.48-.23c.11-.12.18-.28.18-.47v.3c0 .06.03.12.07.17.1.13.33.23.59.23.26 0 .48-.09.59-.23.04-.05.07-.11.07-.17v-.03c.02.07.05.14.1.2.12.13.31.23.53.23.22 0 .41-.09.53-.23.07-.08.12-.17.12-.27v-.12c0 .15.06.28.16.39.12.13.29.23.49.23s.37-.09.49-.23a.62.62 0 00.16-.39v-3.69c-.07-.36-.36-.63-.72-.63z"/><path stroke="#444" stroke-miterlimit="10" stroke-width=".25" d="M25.01 5.76v10.58"/><path fill="#444" d="M29.24 14.93l2.51-3.57c.47-.47 1.22-.52 1.74-.1l1.44 1.15c.52.42 1.27.38 1.74-.1l1.96-1.96a1.31 1.31 0 011.85 0c.06.06.12.13.16.2l3.04 4.55"/><path stroke="#444" stroke-linecap="round" stroke-miterlimit="10" stroke-width=".5" d="M44.08 15.1H29.07V8.93"/><path stroke="#444" stroke-linecap="round" stroke-miterlimit="10" d="M4.65 24.59h7.7M5.39 28.9h16.35M8.18 32.04h7.69m1.68 0h5.48m1.68 0h3.15"/></svg>
